X:8
T:J'ai vu le loup, le renard et la belette
C:Trad.
O:France
A:Bretagne
R:En dro
Z:Michel BELLON
M:2/4
L:1/8
K:C
cB/A/ GA/B/|c/B/c/d/ ec|cB/A/ GA/B/|cd c2::
w:J'ai vu le loup, le re-nard et la be-let-te, j'ai vu le loup, le re-nard dan-ser
cd ef | ed e2|cc/B/ AA/G/|A/G/A/B/ AG|cd ef | ed e2|cc/B/ AB/c/|dB c2:|
w:J'les ai vu ta-per du pied, j'ai vu le loup, le re-nard et la be-let-te.  J'les ai vu ta-per du pied, j'ai vu le loup, le re-nard dan-ser.

%%footer $D   Galouvielle-MBe 2006 \n--- (--)
